public/logos/fortnite.svg

<svg width="717" height="200" viewBox="0 0 717 200" fill="none" xmlns="http://www.w3.org/2000/svg">
<path d="M0 100C0 155.011 0.135986 200 0.317301 200C0.589273 200 37.5322 193.152 42.065 192.245L44.4221 191.791V118.367H72.5259V111.655C72.5259 107.982 72.6619 98.4127 72.8432 90.3401L73.1152 75.737H44.4221V43.5374H60.9671C70.0782 43.5374 77.5121 43.4467 77.5121 43.3107C77.5121 42.8118 81.1384 4.08163 81.365 2.13152L81.637 0H0V100ZM678.027 5.85034L641.854 8.84354V189.524L643.35 189.751C644.665 189.977 714.698 195.057 716.103 195.011C716.511 195.011 716.647 190.204 716.647 172.562V150.113H685.823V117.46H712.114V78.458H684.917V52.6077L685.959 52.4263C686.503 52.2902 691.127 52.1088 696.249 51.9274C701.371 51.7914 708.034 51.5646 711.117 51.3832L716.647 51.1111V2.72109L715.423 2.76644C714.698 2.81179 697.881 4.17234 678.027 5.85034ZM445.808 12.1088C446.261 16.644 451.429 84.9887 451.338 85.0794C451.293 85.1701 444.629 68.7982 436.515 48.7075C428.447 28.6168 421.648 11.9728 421.466 11.6553C421.194 11.1565 408.684 13.4694 388.15 17.8231L386.201 18.2313V174.15H426.543L426.316 170.884C425.863 164.807 424.186 114.558 424.367 112.562C424.503 110.794 425.863 113.878 438.737 144.989C446.533 163.9 453.151 179.546 453.332 179.819C453.604 180.091 459.905 179.683 470.603 178.776C479.895 177.959 487.51 177.234 487.51 177.188C487.556 177.143 487.329 144.444 487.012 104.535C486.694 64.6258 486.422 26.9388 486.422 20.7256L486.377 9.52381H445.536L445.808 12.1088ZM126.694 12.2902C99.5872 14.1043 84.674 32.6531 79.9598 70.2948C79.0079 78.0952 78.6 104.58 79.2799 113.832C81.5463 143.855 89.6602 163.356 104.075 173.288C111.826 178.594 123.475 181.451 134.989 180.771C148.089 180.045 157.019 176.327 165.042 168.299C171.614 161.723 175.195 155.556 178.64 145.034C183.445 130.34 185.621 108.39 184.533 85.5329C183.309 59.9546 179.456 44.0363 171.524 31.8367C163.954 20.2268 151.987 13.288 138.026 12.4263C135.805 12.2902 133.448 12.1542 132.813 12.0635C132.179 12.0181 129.459 12.1088 126.694 12.2902ZM133.085 47.9365C136.394 51.5193 137.799 65.805 137.799 96.3719C137.799 134.014 135.442 149.66 130.275 146.304C128.054 144.807 126.376 137.506 125.561 125.397C124.971 116.553 124.971 76.0544 125.561 67.5737C126.422 55.6009 127.963 48.9796 130.275 47.3923C131.544 46.4853 131.771 46.5306 133.085 47.9365ZM190.381 94.7392V177.324H231.947L232.219 171.565C232.4 168.345 232.763 157.914 233.035 148.299C233.307 138.685 233.669 130.249 233.851 129.569C234.077 128.617 236.027 134.739 242.01 155.42C246.362 170.34 250.033 182.721 250.214 182.902C250.577 183.311 293.095 179.955 293.549 179.501C293.685 179.32 288.971 164.49 283.078 146.44L272.38 113.696L274.647 111.701C282.171 105.125 288.381 92.4263 290.149 79.8639C290.92 74.3764 290.421 60.771 289.242 55.737C284.71 36.0091 272.697 20.6803 257.376 14.966C250.713 12.517 251.257 12.5624 219.754 12.381L190.381 12.1995V94.7392ZM237.114 51.2925C240.333 52.8798 242.962 56.9614 244.367 62.585C245.319 66.3492 245.183 78.2766 244.14 82.0862C242.191 89.2517 238.746 93.424 233.579 95.0113L232.536 95.2834V49.8866L234.032 50.2041C234.803 50.3401 236.208 50.839 237.114 51.2925ZM291.464 33.7868V54.8753H314.581V176.417H358.097V62.1315H381.668V19.9546L380.67 19.7732C379.719 19.5465 293.277 12.6531 292.053 12.6984C291.6 12.6984 291.464 17.2336 291.464 33.7868ZM495.896 99.5465V181.859H540.771V17.2336H495.896V99.5465ZM591.993 22.9478C567.425 24.263 546.982 25.3515 546.574 25.3515C545.803 25.3968 545.758 26.712 545.758 46.712V68.0272H568.875V187.302H612.844V63.0385H637.322V41.7234C637.322 29.9773 637.186 20.4535 637.004 20.4535C636.778 20.4989 616.561 21.5873 591.993 22.9478Z" fill="white"/>
</svg>

<svg xmlns="http://www.w3.org/2000/svg" width="717" height="200" fill="none"><path fill="#fff" d="M0 100c0 55.011.136 100 .317 100 .272 0 37.215-6.848 41.748-7.755l2.357-.454v-73.424h28.104v-6.712c0-3.673.136-13.242.317-21.315l.272-14.603H44.422v-32.2h16.545c9.111 0 16.545-.09 16.545-.226 0-.5 3.626-39.23 3.853-41.18L81.637 0H0zM678.027 5.85l-36.173 2.994v180.68l1.496.227c1.315.226 71.348 5.306 72.753 5.26.408 0 .544-4.807.544-22.449v-22.449h-30.824V117.46h26.291V78.458h-27.197v-25.85l1.042-.182c.544-.136 5.168-.317 10.29-.499 5.122-.136 11.785-.362 14.868-.544l5.53-.272V2.721l-1.224.045c-.725.046-17.542 1.406-37.396 3.084M445.808 12.11c.453 4.535 5.621 72.88 5.53 72.97-.045.091-6.709-16.28-14.823-36.371-8.068-20.091-14.867-36.735-15.049-37.053-.272-.498-12.782 1.814-33.316 6.168l-1.949.408V174.15h40.342l-.227-3.266c-.453-6.077-2.13-56.326-1.949-58.322.136-1.768 1.496 1.316 14.37 32.427 7.796 18.911 14.414 34.557 14.595 34.83.272.272 6.573-.136 17.271-1.043 9.292-.817 16.907-1.542 16.907-1.588.046-.045-.181-32.744-.498-72.653-.318-39.91-.59-77.596-.59-83.81l-.045-11.201h-40.841zm-319.114.181c-27.107 1.814-42.02 20.363-46.734 58.005-.952 7.8-1.36 34.285-.68 43.537 2.266 30.023 10.38 49.524 24.795 59.456 7.751 5.306 19.4 8.163 30.914 7.483 13.1-.726 22.03-4.444 30.053-12.472 6.572-6.576 10.153-12.743 13.598-23.265 4.805-14.694 6.981-36.644 5.893-59.501-1.224-25.578-5.077-41.497-13.009-53.696-7.57-11.61-19.537-18.549-33.498-19.41-2.221-.137-4.578-.273-5.213-.364-.634-.045-3.354.046-6.119.227m6.391 35.647c3.309 3.582 4.714 17.868 4.714 48.435 0 37.642-2.357 53.288-7.524 49.932-2.221-1.497-3.899-8.798-4.714-20.907-.59-8.844-.59-49.343 0-57.823.861-11.973 2.402-18.594 4.714-20.182 1.269-.907 1.496-.861 2.81.544m57.296 46.802v82.585h41.566l.272-5.759c.181-3.22.544-13.651.816-23.266s.634-18.05.816-18.73c.226-.952 2.176 5.17 8.159 25.851 4.352 14.92 8.023 27.301 8.204 27.482.363.409 42.881-2.947 43.335-3.401.136-.181-4.578-15.011-10.471-33.061l-10.698-32.744 2.267-1.995c7.524-6.576 13.734-19.275 15.502-31.837.771-5.488.272-19.093-.907-24.127-4.532-19.728-16.545-35.057-31.866-40.771-6.663-2.449-6.119-2.404-37.622-2.585l-29.373-.181zm46.733-43.447c3.219 1.588 5.848 5.67 7.253 11.293.952 3.764.816 15.692-.227 19.501-1.949 7.166-5.394 11.338-10.561 12.925l-1.043.272V49.887l1.496.317c.771.136 2.176.635 3.082 1.088m54.35-17.505v21.088h23.117v121.542h43.516V62.132h23.571V19.955l-.998-.182c-.951-.226-87.393-7.12-88.617-7.075-.453 0-.589 4.536-.589 21.089m204.432 65.76v82.312h44.875V17.234h-44.875zm96.097-76.6c-24.568 1.316-45.011 2.405-45.419 2.405-.771.045-.816 1.36-.816 21.36v21.315h23.117v119.275h43.969V63.039h24.478V41.723c0-11.746-.136-21.27-.318-21.27-.226.046-20.443 1.134-45.011 2.495"/></svg>
